Applications/Spire/Resources/Icons/sign_in/wordmark_current.svg

<svg viewBox="0 0 72 41" fill="none" xmlns="http://www.w3.org/2000/svg">
<path d="M7 25.3C5.052 25.291 3.109 25.09 1.2 24.7C0.88 24.678 0.622 24.42 0.6 24.1V21.7C0.621 21.379 0.879 21.121 1.2 21.1C3.127 21.297 5.063 21.397 7 21.4C9.9 21.4 10.8 20.3 10.8 18.5C10.8 17.3 10.2 16.5 8.1 15.3L3.9 12.7C0.8 10.9 0 9.10001 0 6.80001C0 3.20001 2.1 0.600006 8.2 0.600006C10.281 0.595006 12.358 0.796006 14.4 1.20001C14.721 1.22101 14.979 1.47901 15 1.80001V4.20001C15 4.50001 14.7 4.70001 14.4 4.70001C12.3 4.50001 10.2 4.40001 8 4.40001C5.6 4.40001 4.5 5.30001 4.5 6.70001C4.5 7.80001 5.1 8.40001 7.2 9.60001L11.1 11.7C14.7 13.7 15.6 15.8 15.6 18.4C15.6 21.8 13.5 25.3 7 25.3Z" fill="white"/>
<path d="M29.9 14.6C29.9 11.9 29.1 9.9 26.4 9.9C25.327 9.921 24.258 10.021 23.2 10.2V21.6C24.256 21.794 25.327 21.895 26.4 21.9C29.3 21.9 29.9 19.9 29.9 17.2V14.6ZM26.4 25.3C25.325 25.332 24.25 25.231 23.2 25V30.8C23.179 31.121 22.921 31.379 22.6 31.4H19.6C19.279 31.379 19.021 31.121 19 30.8V8.005C19 7.51 19.205 7.281 19.9 7.105C22.027 6.567 24.207 6.266 26.4 6.205C31.7 6.205 34.1 9.205 34.1 14.405V17C34.3 22.1 31.7 25.3 26.4 25.3Z" fill="white"/>
<path d="M41.2 25H38.2C37.9 25 37.6 24.7 37.6 24.2V7.2C37.621 6.879 37.879 6.621 38.2 6.6H41.2C41.521 6.621 41.779 6.879 41.8 7.2V24.3C41.8 24.75 41.7 25 41.2 25ZM41.4 4.2H38.2C37.9 4.2 37.4 3.9 37.4 3.6V0.6C37.4 0.3 37.7 0 38.2 0H41.4C41.721 0.021 41.979 0.279 42 0.6V3.5C42.019 3.854 41.753 4.164 41.4 4.2Z" fill="white"/>
<path d="M54.7 10C53.122 10.004 51.571 10.417 50.2 11.2V24.4C50.2 24.7 49.9 25.2 49.6 25.2H46.6C46.3 25.2 46 24.9 46 24.4V7.3C46.021 6.979 46.279 6.721 46.6 6.7H49.5C49.781 6.766 49.986 7.012 50 7.3V8C51.364 7.007 53.013 6.481 54.7 6.5C55.021 6.521 55.279 6.779 55.3 7.1V9.5C55.3 9.7 55.2 9.995 54.7 9.995" fill="white"/>
<path d="M67.5 14.1C67.5 11.5 66.1 10.2 64 10.2C61.9 10.2 60.5 11.6 60.5 14.1V14.3L67.5 14.1ZM71.2 17.3H60.6V17.5C60.6 19.3 61.4 21.6 64.5 21.6C66.9 21.6 69.2 21.4 70.6 21.3H70.8C71.099 21.276 71.367 21.497 71.4 21.795V23.895C71.403 23.925 71.398 24.01 71.398 24.04C71.398 24.483 71.042 24.69 70.6 24.795C68.505 25.292 66.351 25.494 64.2 25.395C60.9 25.395 56.3 23.595 56.3 17.195V14.8C56.3 9.6 59.2 6.5 64.2 6.5C69.2 6.5 72 9.9 72 14.7V16.5C72 17 71.7 17.3 71.2 17.3Z" fill="white"/>
</svg>

<?xml version="1.0" encoding="UTF-8"?><svg id="logo" xmlns="http://www.w3.org/2000/svg" viewBox="0 0 72 41"><defs><style>.cls-1{fill:#fff;stroke-width:0px;}</style></defs><path id="Path_135" class="cls-1" d="M7,25.3c-1.95,0-3.89-.21-5.8-.6-.32-.02-.58-.28-.6-.6v-2.4c.02-.32.28-.58.6-.6,1.93.2,3.86.3,5.8.3,2.9,0,3.8-1.1,3.8-2.9,0-1.2-.6-2-2.7-3.2l-4.2-2.6C.8,10.9,0,9.1,0,6.8,0,3.2,2.1.6,8.2.6c2.08,0,4.16.2,6.2.6.32.02.58.28.6.6v2.4c-.2.2-.3.5-.6.5-2.1-.2-4.2-.3-6.4-.3-2.4,0-3.5.9-3.5,2.3,0,1.1.6,1.7,2.7,2.9l3.9,2.1c3.6,2,4.5,4.1,4.5,6.7,0,3.4-2.1,6.9-8.6,6.9"/><path id="Path_136" class="cls-1" d="M29.9,14.6c0-2.7-.8-4.7-3.5-4.7-1.07.02-2.14.12-3.2.3v11.4c1.06.19,2.13.29,3.2.3,2.9,0,3.5-2,3.5-4.7v-2.6ZM26.4,25.3c-1.07.03-2.15-.07-3.2-.3v5.8c-.02.32-.28.58-.6.6h-3c-.32-.02-.58-.28-.6-.6V8.01c0-.5.2-.8.9-.9,2.13-.54,4.31-.84,6.5-.9,5.3,0,7.7,3,7.7,8.2v2.6c.2,5.1-2.4,8.3-7.7,8.3"/><path id="Path_137" class="cls-1" d="M41.2,25h-3c-.3,0-.6-.3-.6-.8V7.2c.02-.32.28-.58.6-.6h3c.32.02.58.28.6.6v17.1c.2.4-.1.7-.6.7M41.4,4.2h-3.2c-.3,0-.8-.3-.8-.6V.6c0-.3.3-.6.8-.6h3.2c.32.02.58.28.6.6v2.9c.02.36-.24.66-.6.7"/><path id="Path_138" class="cls-1" d="M54.7,10c-1.58,0-3.13.42-4.5,1.2v13.2c0,.3-.3.8-.6.8h-3c-.3,0-.6-.3-.6-.8V7.3c.02-.32.28-.58.6-.6h2.9c.28.07.48.31.5.6v.7c1.37-.99,3.02-1.52,4.71-1.5.32.02.58.28.6.6v2.4c0,.2-.1.5-.6.5"/><path id="Path_139" class="cls-1" d="M67.5,14.1c0-2.6-1.4-3.9-3.5-3.9s-3.5,1.4-3.5,3.9v.2l7-.2ZM71.2,17.3h-10.6v.2c0,1.8.8,4.1,3.9,4.1,2.4,0,4.7-.2,6.1-.3h.2c.3-.02.57.2.6.5v2.1c.05.44-.27.84-.71.89-.03,0-.06,0-.09,0-2.1.5-4.25.7-6.4.6-3.3,0-7.9-1.8-7.9-8.2v-2.39c0-5.2,2.9-8.3,7.9-8.3s7.8,3.4,7.8,8.2v1.8c-.2.5-.3.8-.8.8"/></svg>
